X:22
%%pagewidth 7.5in
%%vocalfont Baskerville10Pro 11.5
%%score 1 2
T: Malt's Come Down
M: 6/8
L: 1/8
K: G
V:1 clef-treble
V:2 clef-bass octave=-1
V:1
G|G>AB (B>A)B & D3 D3|(G>A)B c2c & E3 E3|(B>A)B A2G & ^D3 E3|(F>E)F G3 & C3 B,3|
w:There's ne-ver a maid* in all* this town, But well* she knows that malt's* come down,
V:2
z|[GB]3 [FGB]3|[EGB]3 [A,A]3|[B,F]3 [CE]3|[=DG]3 [G,G]3|
V:1
(G>A)B B3 & D3 D3|(G>A)B c3 & E3 E3|B>AB A2G & ^D3 E3|F>EF G2 & C3 B,2||
w:Malt's* come down, malt's* come down, From an old an-gel to a French crown.
V:2
[GB]3 [FGB]3|[EGB]3 [A,A]3|[B,F]3 [CE]3|[=DA]3 [G,G]2||

